public/assets/img/svg/embed/edit-meta.svg

<svg width="48" height="38" viewBox="0 0 48 38" xmlns="http://www.w3.org/2000/svg"><path d="M41.737 10.5h.75v-1.5h-22.289v1.5h21.539z"/><path d="M41.737 19.5h.75v-1.5h-22.289v1.5h21.539z"/><path d="M41.557 28.5h.75v-1.5h-36.557v1.5h35.807z"/><path d="M44.122 2c1.036 0 1.878.833 1.878 1.84v30.32c0 1.017-.832 1.84-1.878 1.84h-40.245c-1.036 0-1.878-.833-1.878-1.84v-30.32c0-1.017.832-1.84 1.878-1.84h40.245zm-44.122 1.84v30.32c0 2.117 1.742 3.84 3.878 3.84h40.245c2.146 0 3.878-1.713 3.878-3.84v-30.32c0-2.117-1.742-3.84-3.878-3.84h-40.245c-2.146 0-3.878 1.713-3.878 3.84z"/><path d="M16 10l-1-1v10l1-1h-9l1 1v-10l-1 1h9zm-10-2v12h11v-12h-11z"/></svg>

<svg width="48" height="38" viewBox="0 0 48 38" xmlns="http://www.w3.org/2000/svg"><path d="M41.737 10.5h.75V9h-22.29v1.5h21.54zM41.737 19.5h.75V18h-22.29v1.5h21.54zM41.557 28.5h.75V27H5.75v1.5h35.807z"/><path d="M44.122 2C45.158 2 46 2.833 46 3.84v30.32c0 1.017-.832 1.84-1.878 1.84H3.877C2.84 36 2 35.167 2 34.16V3.84C2 2.823 2.83 2 3.876 2h40.245zM0 3.84v30.32C0 36.277 1.742 38 3.878 38h40.245C46.27 38 48 36.287 48 34.16V3.84C48 1.723 46.26 0 44.124 0H3.878C1.732 0 0 1.713 0 3.84z"/><path d="M16 10l-1-1v10l1-1H7l1 1V9l-1 1h9zM6 8v12h11V8H6z"/></svg>
